X: 277
T: Godriail
%R: reel
B: "The Compleat Country Dancing-Master" printed by John Walsh, London ca. 1740
S: 6: CCDM2 http://imslp.org/wiki/The_Compleat_Country_Dancing-Master_(Various) V.2 (112)
Z: 2013 John Chambers <jc:trillian.mit.edu>
M: C
L: 1/8
K: G
% - - - - - - - - - - - - - - - - - - - - - - - - -
[|\
BGcA BGcA | BGEA c2A2 | BGcA BGcA | BGDG B2G2 |]\
Bdgd Bdgd | Bdgb a2A2 | Bdgd Bdgd | Bdfa g2G2 |]
% - - - - - - - - - - - - - - - - - - - - - - - - -
%%begintext align
%% Hey Contrary sides then on your own sides Cross over two
%% Couple and foot the tune out then cross over the same
%% couple into your own Places then the 1st Man foot it
%% to the 2d Wo. turn her the 1st Wo. do the same to the
%% 2d Man then the 1st and 2d Men lead out sides and turn
%% till the 1st Man Comes in the 2d Mans Place then the
%% 1st and 2d We. do the same
%%endtext
%%sep 1 8 500

%%sep 1 1 500
%%sep 1 1 500
